images/fire-icon.svg

<svg xmlns="http://www.w3.org/2000/svg" xmlns:xlink="http://www.w3.org/1999/xlink" width="101" zoomAndPan="magnify" viewBox="0 0 75.75 92.249997" height="123" preserveAspectRatio="xMidYMid meet" version="1.0"><defs><clipPath id="66053fc797"><path d="M 0.25 1.023438 L 75 1.023438 L 75 91 L 0.25 91 Z M 0.25 1.023438 " clip-rule="nonzero"/></clipPath><clipPath id="061bb4213d"><path d="M 0.179688 0 L 75 0 L 75 90 L 0.179688 90 Z M 0.179688 0 " clip-rule="nonzero"/></clipPath></defs><g clip-path="url(#66053fc797)"><path fill="#da251d" d="M 38.507812 90.027344 C 38.507812 90.027344 23.1875 88.46875 12.058594 73.015625 C 12.058594 73.015625 5.910156 64.074219 0.25 59.992188 C 0.25 59.992188 6.484375 60.082031 10.558594 63.140625 C 10.558594 63.140625 5.910156 58.242188 11.085938 43.46875 C 11.085938 43.46875 10.988281 50.078125 13.523438 54.0625 C 13.523438 54.0625 11.667969 44.832031 24.257812 33.363281 C 24.257812 33.363281 21.332031 41.914062 26.015625 47.84375 C 26.015625 47.84375 22.402344 19.746094 48.761719 1.082031 C 48.761719 1.082031 38.410156 12.953125 46.121094 21.503906 C 46.121094 21.503906 55.003906 33.460938 56.175781 44.246094 C 56.175781 44.246094 56.46875 49.300781 59.003906 50.46875 C 61.542969 51.632812 66.03125 38.125 60.957031 25.683594 C 60.957031 25.683594 69.15625 31.222656 69.933594 47.457031 C 70.714844 63.6875 69.644531 66.894531 69.644531 66.894531 C 69.644531 66.894531 72.375 65.046875 72.765625 57.757812 C 72.765625 57.757812 75.402344 63.976562 74.230469 68.644531 C 73.058594 73.308594 61.835938 90.996094 38.507812 90.027344 Z M 38.507812 90.027344 " fill-opacity="1" fill-rule="evenodd"/></g><path fill="#e77817" d="M 38.703125 88.46875 C 38.703125 88.46875 27.675781 88.375 19.476562 77.195312 C 19.476562 77.195312 15.183594 70.394531 11.667969 68.449219 C 11.667969 68.449219 14.695312 67.671875 18.402344 70.199219 C 18.402344 70.199219 15.867188 65.921875 18.792969 57.273438 C 18.792969 57.273438 19.476562 62.617188 20.453125 64.171875 C 20.453125 64.171875 20.550781 55.523438 27.675781 50.46875 C 27.675781 50.46875 26.308594 57.273438 28.652344 59.605469 C 28.652344 59.605469 28.847656 36.472656 43.878906 28.601562 C 43.878906 28.601562 38.996094 34.429688 40.753906 39.289062 C 42.511719 44.152344 47.878906 47.746094 48.367188 54.160156 C 48.855469 60.578125 51.097656 61.742188 51.097656 61.742188 C 51.097656 61.742188 56.957031 57.953125 52.269531 45.121094 C 52.269531 45.121094 58.417969 49.300781 58.320312 57.953125 C 58.320312 57.953125 59.589844 67.964844 56.46875 71.460938 C 56.46875 71.460938 59.980469 72.628906 60.761719 66.992188 C 60.761719 66.992188 63.300781 72.917969 59.101562 78.847656 C 54.90625 84.777344 46.511719 88.179688 38.703125 88.46875 Z M 38.703125 88.46875 " fill-opacity="1" fill-rule="evenodd"/><path fill="#fff500" d="M 29.335938 67.089844 C 29.335938 67.089844 26.699219 74.863281 30.898438 73.40625 C 35.09375 71.949219 39.582031 56.105469 37.046875 53.1875 C 37.046875 53.1875 44.070312 59.410156 41.632812 68.15625 C 37.773438 82 55.707031 69.140625 48.269531 65.4375 C 53.832031 66.519531 55.855469 78.023438 51.878906 80.597656 C 40 88.289062 12.609375 83.089844 29.335938 67.089844 Z M 29.335938 67.089844 " fill-opacity="1" fill-rule="evenodd"/><g clip-path="url(#061bb4213d)"><path fill="#da251d" d="M 38.441406 89.003906 C 38.441406 89.003906 23.117188 87.445312 11.992188 71.992188 C 11.992188 71.992188 5.84375 63.050781 0.179688 58.96875 C 0.179688 58.96875 6.417969 59.058594 10.488281 62.117188 C 10.488281 62.117188 5.84375 57.21875 11.015625 42.445312 C 11.015625 42.445312 10.917969 49.054688 13.453125 53.039062 C 13.453125 53.039062 11.601562 43.808594 24.191406 32.339844 C 24.191406 32.339844 21.261719 40.890625 25.945312 46.820312 C 25.945312 46.820312 22.332031 18.722656 48.691406 0.0585938 C 48.691406 0.0585938 38.34375 11.929688 46.050781 20.480469 C 46.050781 20.480469 54.933594 32.4375 56.105469 43.222656 C 56.105469 43.222656 56.398438 48.277344 58.933594 49.445312 C 61.472656 50.609375 65.960938 37.101562 60.886719 24.660156 C 60.886719 24.660156 69.085938 30.199219 69.867188 46.433594 C 70.648438 62.664062 69.574219 65.871094 69.574219 65.871094 C 69.574219 65.871094 72.304688 64.023438 72.695312 56.734375 C 72.695312 56.734375 75.332031 62.953125 74.160156 67.621094 C 72.988281 72.285156 61.765625 89.972656 38.441406 89.003906 Z M 38.441406 89.003906 " fill-opacity="1" fill-rule="evenodd"/></g><path fill="#e77817" d="M 38.636719 87.445312 C 38.636719 87.445312 27.605469 87.351562 19.410156 76.171875 C 19.410156 76.171875 15.113281 69.371094 11.601562 67.425781 C 11.601562 67.425781 14.625 66.648438 18.335938 69.175781 C 18.335938 69.175781 15.796875 64.898438 18.726562 56.25 C 18.726562 56.25 19.410156 61.59375 20.382812 63.148438 C 20.382812 63.148438 20.480469 54.5 27.605469 49.445312 C 27.605469 49.445312 26.238281 56.25 28.582031 58.582031 C 28.582031 58.582031 28.777344 35.449219 43.808594 27.578125 C 43.808594 27.578125 38.929688 33.40625 40.683594 38.269531 C 42.441406 43.128906 47.808594 46.722656 48.296875 53.136719 C 48.785156 59.554688 51.03125 60.71875 51.03125 60.71875 C 51.03125 60.71875 56.886719 56.929688 52.199219 44.097656 C 52.199219 44.097656 58.351562 48.277344 58.253906 56.929688 C 58.253906 56.929688 59.519531 66.941406 56.398438 70.4375 C 56.398438 70.4375 59.910156 71.605469 60.691406 65.96875 C 60.691406 65.96875 63.230469 71.894531 59.03125 77.824219 C 54.835938 83.753906 46.441406 87.15625 38.636719 87.445312 Z M 38.636719 87.445312 " fill-opacity="1" fill-rule="evenodd"/><path fill="#fff500" d="M 29.265625 66.066406 C 29.265625 66.066406 26.628906 73.839844 30.828125 72.382812 C 35.023438 70.925781 39.511719 55.082031 36.976562 52.164062 C 36.976562 52.164062 44.003906 58.386719 41.5625 67.132812 C 37.703125 80.976562 55.636719 68.117188 48.199219 64.414062 C 53.761719 65.496094 55.785156 77 51.8125 79.574219 C 39.929688 87.265625 12.542969 82.066406 29.265625 66.066406 Z M 29.265625 66.066406 " fill-opacity="1" fill-rule="evenodd"/></svg>

<svg xmlns="http://www.w3.org/2000/svg" width="101" height="123" viewBox="0 0 75.75 92.25"><defs><clipPath id="a"><path d="M.25 1.023H75V91H.25Zm0 0"/></clipPath><clipPath id="b"><path d="M.18 0H75v90H.18Zm0 0"/></clipPath></defs><g clip-path="url(#a)"><path fill="#da251d" fill-rule="evenodd" d="M38.508 90.027s-15.32-1.558-26.45-17.011c0 0-6.148-8.942-11.808-13.024 0 0 6.234.09 10.309 3.149 0 0-4.649-4.899.527-19.672 0 0-.098 6.61 2.437 10.593 0 0-1.855-9.23 10.735-20.699 0 0-2.926 8.551 1.758 14.48 0 0-3.614-28.097 22.746-46.761 0 0-10.352 11.871-2.64 20.422 0 0 8.882 11.957 10.054 22.742 0 0 .293 5.055 2.828 6.223 2.539 1.164 7.027-12.344 1.953-24.785 0 0 8.2 5.539 8.977 21.773.78 16.23-.29 19.438-.29 19.438s2.731-1.848 3.122-9.137c0 0 2.636 6.219 1.464 10.887-1.171 4.664-12.394 22.351-35.722 21.382m0 0"/></g><path fill="#e77817" fill-rule="evenodd" d="M38.703 88.469s-11.027-.094-19.226-11.274c0 0-4.293-6.8-7.809-8.746 0 0 3.027-.777 6.734 1.75 0 0-2.535-4.277.391-12.926 0 0 .684 5.344 1.66 6.899 0 0 .098-8.649 7.223-13.703 0 0-1.367 6.804.976 9.136 0 0 .196-23.132 15.227-31.003 0 0-4.883 5.828-3.125 10.687 1.758 4.863 7.125 8.457 7.613 14.871.488 6.418 2.73 7.582 2.73 7.582s5.86-3.789 1.173-16.62c0 0 6.148 4.179 6.05 12.831 0 0 1.27 10.012-1.851 13.508 0 0 3.511 1.168 4.293-4.469 0 0 2.539 5.926-1.66 11.856-4.196 5.93-12.59 9.332-20.399 9.62m0 0"/><path fill="#fff500" fill-rule="evenodd" d="M29.336 67.09s-2.637 7.773 1.562 6.316c4.196-1.457 8.684-17.3 6.149-20.219 0 0 7.023 6.223 4.586 14.97-3.86 13.843 14.074.984 6.637-2.72 5.562 1.083 7.585 12.586 3.609 15.16C40 88.29 12.609 83.09 29.336 67.09m0 0"/><g clip-path="url(#b)"><path fill="#da251d" fill-rule="evenodd" d="M38.441 89.004s-15.324-1.559-26.449-17.012c0 0-6.148-8.941-11.812-13.023 0 0 6.238.09 10.308 3.148 0 0-4.644-4.898.528-19.672 0 0-.098 6.61 2.437 10.594 0 0-1.851-9.23 10.738-20.7 0 0-2.93 8.552 1.754 14.481 0 0-3.613-28.097 22.746-46.761 0 0-10.347 11.87-2.64 20.421 0 0 8.883 11.958 10.054 22.743 0 0 .293 5.054 2.829 6.222 2.539 1.164 7.027-12.343 1.953-24.785 0 0 8.199 5.54 8.98 21.774.781 16.23-.293 19.437-.293 19.437s2.73-1.848 3.121-9.137c0 0 2.637 6.22 1.465 10.887-1.172 4.664-12.394 22.352-35.719 21.383m0 0"/></g><path fill="#e77817" fill-rule="evenodd" d="M38.637 87.445s-11.032-.093-19.227-11.273c0 0-4.297-6.8-7.808-8.746 0 0 3.023-.778 6.734 1.75 0 0-2.54-4.278.39-12.926 0 0 .684 5.344 1.657 6.898 0 0 .097-8.648 7.222-13.703 0 0-1.367 6.805.977 9.137 0 0 .195-23.133 15.227-31.004 0 0-4.88 5.828-3.125 10.692 1.757 4.859 7.125 8.453 7.613 14.867.488 6.418 2.734 7.582 2.734 7.582s5.856-3.79 1.168-16.621c0 0 6.153 4.18 6.055 12.832 0 0 1.266 10.011-1.856 13.508 0 0 3.512 1.167 4.293-4.47 0 0 2.54 5.927-1.66 11.856-4.195 5.93-12.59 9.332-20.394 9.621m0 0"/><path fill="#fff500" fill-rule="evenodd" d="M29.266 66.066s-2.637 7.774 1.562 6.317c4.195-1.457 8.684-17.301 6.149-20.219 0 0 7.027 6.223 4.586 14.969-3.86 13.844 14.074.984 6.636-2.719 5.563 1.082 7.586 12.586 3.614 15.16-11.883 7.692-39.27 2.492-22.547-13.508m0 0"/></svg>
